theme/dark/ui-dark-plain-color-state-sync.svg

<?xml version="1.0" encoding="UTF-8" standalone="no"?>
<svg
   width="512"
   height="512"
   viewBox="0 0 32 32"
   fill="none"
   version="1.1"
   id="svg19047"
   sodipodi:docname="ui-dark-plain-color-state-sync.svg"
   inkscape:version="1.1 (c68e22c387, 2021-05-23)"
   xmlns:inkscape="http://www.inkscape.org/namespaces/inkscape"
   xmlns:sodipodi="http://sodipodi.sourceforge.net/DTD/sodipodi-0.dtd"
   xmlns="http://www.w3.org/2000/svg"
   xmlns:svg="http://www.w3.org/2000/svg">
  <sodipodi:namedview
     id="namedview19049"
     pagecolor="#ffffff"
     bordercolor="#666666"
     borderopacity="1.0"
     inkscape:pageshadow="2"
     inkscape:pageopacity="0.0"
     inkscape:pagecheckerboard="0"
     showgrid="false"
     inkscape:zoom="0.890625"
     inkscape:cx="255.4386"
     inkscape:cy="256"
     inkscape:window-width="1366"
     inkscape:window-height="706"
     inkscape:window-x="-8"
     inkscape:window-y="-8"
     inkscape:window-maximized="1"
     inkscape:current-layer="svg19047" />
  <defs
     id="defs19045">
    <clipPath
       id="clip0">
      <rect
         width="32"
         height="32"
         fill="white"
         id="rect19042" />
    </clipPath>
    <clipPath
       clipPathUnits="userSpaceOnUse"
       id="clipPath4347">
      <circle
         style="display:none;fill:#ff0000;fill-opacity:1;stroke-width:0.193737"
         id="circle4349"
         cx="17.999962"
         cy="23.499962"
         r="10.455049"
         d="M 28.45501,23.499962 A 10.455049,10.455049 0 0 1 17.999962,33.95501 10.455049,10.455049 0 0 1 7.5449133,23.499962 10.455049,10.455049 0 0 1 17.999962,13.044913 10.455049,10.455049 0 0 1 28.45501,23.499962 Z" />
      <path
         id="lpe_path-effect4351"
         style="fill:#ff0000;fill-opacity:1;stroke-width:0.193737"
         class="powerclip"
         d="M -5,-5 H 36.999606 V 26.33307 H -5 Z M 28.45501,23.499962 A 10.455049,10.455049 0 0 0 17.999962,13.044913 10.455049,10.455049 0 0 0 7.5449133,23.499962 10.455049,10.455049 0 0 0 17.999962,33.95501 10.455049,10.455049 0 0 0 28.45501,23.499962 Z" />
    </clipPath>
    <inkscape:path-effect
       effect="powerclip"
       id="path-effect4351"
       is_visible="true"
       lpeversion="1"
       inverse="true"
       flatten="false"
       hide_clip="false"
       message="Utilice la regla de relleno parimpar en el diálogo &lt;b&gt;Relleno y borde&lt;/b&gt; si el resultado no está aplanada después de convertir el recorte en trayectos." />
  </defs>
  <g
     id="g19242">
    <path
       fill-rule="evenodd"
       clip-rule="evenodd"
       d="m 26.5,23.4995 c 0,4.6939 -3.8061,8.499 -8.5,8.499 -4.6939,0 -8.5,-3.8051 -8.5,-8.499 C 9.5,18.8051 13.3061,15 18,15 c 4.6939,0 8.5,3.8051 8.5,8.4995 z"
       fill="#006ab0"
       id="path19036" />
    <path
       fill-rule="evenodd"
       clip-rule="evenodd"
       d="m 16.3627,23.3878 -1.6643,0.2747 -2.0618,0.3632 0.3361,3.773 0.787,-1.0254 c 1.0431,1.3328 2.633,2.1164 4.3335,2.1164 0.3189,0 0.6404,-0.0284 0.9567,-0.0842 1.1207,-0.1972 2.137,-0.7284 2.9399,-1.534 0.8173,-0.8212 1.3536,-1.8629 1.5992,-3.319 l -2.4155,0.5305 c -0.3959,1.1015 -1.3652,1.9162 -2.5118,2.1188 -0.1882,0.0333 -0.3804,0.05 -0.5691,0.05 -0.6191,0 -1.2126,-0.1776 -1.7201,-0.4935 -0.4876,-0.3035 -0.8957,-0.7349 -1.1708,-1.2594 z m 1.7338,-5.5128 c -0.3199,0 -0.642,0.0289 -0.9592,0.0846 -1.1392,0.2007 -2.1608,0.7549 -2.9528,1.5806 -0.8106,0.8449 -1.381,1.9743 -1.589,3.3005 l 2.4088,-0.5309 c 0.3916,-1.1176 1.3636,-1.9438 2.522,-2.1475 0.1878,-0.0333 0.3795,-0.0505 0.5692,-0.0505 0.6228,0 1.219,0.1789 1.7277,0.4973 0.4889,0.306 0.8971,0.7409 1.1708,1.2699 l -1.1715,1.524 3.7497,-0.6562 -0.3586,-3.7536 -0.7763,1.008 C 21.396,18.6627 19.8033,17.875 18.0965,17.875 Z"
       fill="#ffffff"
       stroke="#004a9f"
       stroke-width="0.25"
       id="path19038" />
    <path
       d="M 25.799682,8.053234 C 24.893027,3.453291 20.853076,0 15.999803,0 12.146517,0 8.799891,2.18664 7.133245,5.3866 3.119961,5.813262 0,9.21322 0,13.333169 0,17.746448 3.586622,21.33307 7.999901,21.33307 h 17.33312 c 3.679955,0 6.666585,-2.986629 6.666585,-6.666584 0,-3.519957 -2.7333,-6.373255 -6.199924,-6.613252 z"
       id="path121"
       style="fill:#ffffff;fill-opacity:1;stroke-width:1.33332"
       clip-path="url(#clipPath4347)"
       inkscape:path-effect="#path-effect4351"
       inkscape:original-d="M 25.799682,8.053234 C 24.893027,3.453291 20.853076,0 15.999803,0 12.146517,0 8.799891,2.18664 7.133245,5.3866 3.119961,5.813262 0,9.21322 0,13.333169 0,17.746448 3.586622,21.33307 7.999901,21.33307 h 17.33312 c 3.679955,0 6.666585,-2.986629 6.666585,-6.666584 0,-3.519957 -2.7333,-6.373255 -6.199924,-6.613252 z"
       transform="translate(1.97e-4)" />
  </g>
</svg>

<svg width="512" height="512" viewBox="0 0 32 32" fill="none" xmlns="http://www.w3.org/2000/svg">
<g clip-path="url(#clip0)">
<path fill-rule="evenodd" clip-rule="evenodd" d="M28.8055 12.498C28.5515 9.994 26.4905 8.042 23.9855 8.042C23.9595 8.042 23.9355 8.044 23.9115 8.044C23.8365 5.567 21.8605 3.582 19.4295 3.582C19.2475 3.582 19.0685 3.595 18.8915 3.616C18.4515 1.548 16.6585 0 14.5125 0C12.7495 0 11.2265 1.044 10.4935 2.563C10.0755 2.222 9.5485 2.018 8.9735 2.018C7.6215 2.018 6.5255 3.144 6.5255 4.532C6.5255 5.073 6.6935 5.573 6.9765 5.983C6.0145 6.601 5.2785 7.556 4.9255 8.687C4.7805 8.673 4.6335 8.665 4.4845 8.665C2.0075 8.665 -0.00050354 10.727 -0.00050354 13.27C-0.00050354 15.814 2.0075 18 4.4845 18H9.0725C10.9245 15.006 14.2275 13 17.9995 13C21.7715 13 25.0755 15.006 26.9275 18H29.4355C30.8515 18 31.9995 16.503 31.9995 15.049C31.9995 13.594 30.8515 12.415 29.4355 12.415C29.2175 12.415 29.0075 12.446 28.8055 12.498Z" fill="white"/>
<path fill-rule="evenodd" clip-rule="evenodd" d="M26.5 23.4995C26.5 28.1934 22.6939 31.9985 18 31.9985C13.3061 31.9985 9.5 28.1934 9.5 23.4995C9.5 18.8051 13.3061 15 18 15C22.6939 15 26.5 18.8051 26.5 23.4995Z" fill="#006AB0"/>
<path fill-rule="evenodd" clip-rule="evenodd" d="M16.3627 23.3878L14.6984 23.6625L12.6366 24.0257L12.9727 27.7987L13.7597 26.7733C14.8028 28.1061 16.3927 28.8897 18.0932 28.8897C18.4121 28.8897 18.7336 28.8613 19.0499 28.8055C20.1706 28.6083 21.1869 28.0771 21.9898 27.2715C22.8071 26.4503 23.3434 25.4086 23.589 23.9525L21.1735 24.483C20.7776 25.5845 19.8083 26.3992 18.6617 26.6018C18.4735 26.6351 18.2813 26.6518 18.0926 26.6518C17.4735 26.6518 16.88 26.4742 16.3725 26.1583C15.8849 25.8548 15.4768 25.4234 15.2017 24.8989L16.3627 23.3878ZM18.0965 17.875C17.7766 17.875 17.4545 17.9039 17.1373 17.9596C15.9981 18.1603 14.9765 18.7145 14.1845 19.5402C13.3739 20.3851 12.8035 21.5145 12.5955 22.8407L15.0043 22.3098C15.3959 21.1922 16.3679 20.366 17.5263 20.1623C17.7141 20.129 17.9058 20.1118 18.0955 20.1118C18.7183 20.1118 19.3145 20.2907 19.8232 20.6091C20.3121 20.9151 20.7203 21.35 20.994 21.879L19.8225 23.403L23.5722 22.7468L23.2136 18.9932L22.4373 20.0012C21.396 18.6627 19.8033 17.875 18.0965 17.875Z" fill="white" stroke="#004A9F" stroke-width="0.25"/>
</g>
<defs>
<clipPath id="clip0">
<rect width="32" height="32" fill="white"/>
</clipPath>
</defs>
</svg>
